X:1
T:Title
%%score { ( 1 3 ) | ( 2 4 ) }
L:1/8
M:9/8
K:G
V:1 treble nm="Grand Piano"
V:3 treble 
V:2 bass 
V:4 bass 
V:1
 z3 z3[Q:1/4=108] [B,D][B,G][DA] | [DB]3 [DB]3 cBA | [B,G]6 D3 | z F[EG] B3 A3 |[M:5/8] A-A- A3 | %5
[M:2/4] .D2 G[DA] |[M:9/8] [DB]3 [DB]3 ABc | B6 [EA]3 | GFG B3 A3 |[M:3/4] [G,B,G]6 |[M:3/8] D3 | %11
[M:9/8] [G,DG]2 [G,DG] [G,DG]3 A3 | B2 B B3 [DB]3 | [Ec]2 [DB] [CA]3 [B,G]3 |[M:3/4] A6 | %15
[M:3/8] D3 |[M:9/8] [G,DG]2 [G,DG] [G,DG]3 [DA]3 | [DB]2 [Dc] [Dd]3 [Ec]3 | BAG B3 A3 | %19
[M:3/4] [B,G]6 |] %20
V:2
 z3 z3 [G,,G,][G,,G,][G,,G,] | [G,,G,]3 [G,,G,]3 [D,F,D]2 [D,F,C] | [G,,G,]6 [B,,G,]3 | %3
 [C,G,]2 [C,G,] [D,G,D]3 [E,G,^C]3 |[M:5/8] [D,F,D]-[D,F,D]- [D,F,D]3 | %5
[M:2/4] [D,F,][D,F,] [B,,G,][A,,F,] |[M:9/8] [G,,G,]3 [G,,G,]3 [D,F,D]2 [D,F,D] | [G,D]6 [C,C]3 | %8
 .B,3 z3 z3 |[M:3/4] G,,6 |[M:3/8] D,3 |[M:9/8] B,,2 B,, B,,3 [D,F,D]3 | %12
 [G,D]2 [G,D] [G,D]3 [G,,G,]3 | [G,,G,]2 [G,,G,] [G,,G,]3 [G,,G,]3 |[M:3/4] [D,F,D]6 |[M:3/8] D,3 | %16
[M:9/8] B,,2 B,, B,,3 [A,,F,]3 | [G,,G,]2 [A,,G,] [B,,G,]3 [C,G,]3 | %18
 [D,G,D]2 [D,B,D] [D,G,D]3 [D,F,C]3 |[M:3/4] [G,,G,]6 |] %20
V:3
 x9 | x9 | x9 | .E3 z3 z3 |[M:5/8] x5 |[M:2/4] z .D3 |[M:9/8] x9 | x9 | x9 |[M:3/4] x6 | %10
[M:3/8] x3 |[M:9/8] x9 | x9 | x9 |[M:3/4] x6 |[M:3/8] x3 |[M:9/8] x9 | x9 | x9 |[M:3/4] x6 |] %20
V:4
 x9 | x9 | x9 | x9 |[M:5/8] x5 |[M:2/4] x4 |[M:9/8] x9 | x9 | %8
 [D,D]-[D,A,D][D,B,D] [D,G,D]3 [D,F,C]3 |[M:3/4] x6 |[M:3/8] x3 |[M:9/8] x9 | x9 | x9 |[M:3/4] x6 | %15
[M:3/8] x3 |[M:9/8] x9 | x9 | x9 |[M:3/4] x6 |] %20

